UI/Misc/SVG/car-wifi-on_solid_16px.svg

<svg width="16" height="16" viewBox="0 0 16 16" fill="none" xmlns="http://www.w3.org/2000/svg">
<path d="M3.32 3.77L2.18 2.77C2.64973 2.21495 3.23487 1.76903 3.89462 1.46334C4.55437 1.15764 5.27287 0.999519 6 1H10C10.7303 1.00442 11.4507 1.16876 12.1107 1.48146C12.7706 1.79416 13.3541 2.24764 13.82 2.81L12.68 3.81C12.3574 3.4077 11.9499 3.08165 11.4866 2.85519C11.0233 2.62873 10.5156 2.50744 10 2.5H6C5.48755 2.50258 4.98193 2.61767 4.51884 2.83711C4.05575 3.05656 3.6465 3.37502 3.32 3.77ZM7 4C6.12651 3.9997 5.27807 4.2919 4.59 4.83L5.79 5.83C6.15676 5.61425 6.57448 5.50032 7 5.5H9C9.42552 5.50032 9.84324 5.61425 10.21 5.83L11.41 4.83C10.7219 4.2919 9.87349 3.9997 9 4H7ZM14 11V12V13C14 13.5304 13.7893 14.0391 13.4142 14.4142C13.0391 14.7893 12.5304 15 12 15H11L10 14H6L5 15H4C3.46957 15 2.96086 14.7893 2.58579 14.4142C2.21071 14.0391 2 13.5304 2 13V11L3.45 8.11C3.61558 7.77679 3.87083 7.49637 4.18704 7.30028C4.50326 7.10419 4.86792 7.0002 5.24 7H10.76C11.1321 7.0002 11.4967 7.10419 11.813 7.30028C12.1292 7.49637 12.3844 7.77679 12.55 8.11L14 11ZM6 8.5C5.70101 8.50031 5.40893 8.58996 5.16126 8.75745C4.91359 8.92494 4.72162 9.16263 4.61 9.44L4 11H12L11.36 9.44C11.2503 9.16731 11.063 8.93284 10.8212 8.76573C10.5794 8.59861 10.2939 8.50621 10 8.5H6ZM6 12H4V13H6V12ZM12 12H10V13H12V12Z" fill="#0F1621"/>
</svg>

<svg xmlns="http://www.w3.org/2000/svg" width="16" height="16" viewBox="0 0 16 16"><rect width="16" height="16" style="fill:none"/><path d="M3.32,3.77l-1.14-1A5,5,0,0,1,6,1h4a5,5,0,0,1,3.82,1.81l-1.14,1A3.5,3.5,0,0,0,10,2.5H6A3.5,3.5,0,0,0,3.32,3.77ZM7,4a3.91,3.91,0,0,0-2.41.83l1.2,1A2.39,2.39,0,0,1,7,5.5H9a2.39,2.39,0,0,1,1.21.33l1.2-1A3.91,3.91,0,0,0,9,4Zm7,7h0v1h0v1a2,2,0,0,1-2,2H11l-1-1H6L5,15H4a2,2,0,0,1-2-2V11H2L3.45,8.11A2,2,0,0,1,5.24,7h5.52a2,2,0,0,1,1.79,1.11ZM6,8.5a1.5,1.5,0,0,0-1.39.94L4,11h8l-.64-1.56A1.5,1.5,0,0,0,10,8.5ZM6,12H4v1H6Zm6,0H10v1h2Z"/></svg>
